!!!!SEGMENT: pl-kk--kk-i-382--022-003_anonim--nro-7-agnus.krn
!!!cenid: 18xx:1495
!!!COM: Anonim
!!!COM-rismID:
!!!CDT:
!!!CNT:
!!!OPR: Nro 7
!!!OTL: Agnus
!!!OMV: 006
!!!PDT:
!!!AGN: Sacred
!!!SMS-siglum: PL-Kk
!!!SMS-shelfmark: Kk.I.382
!!!SMS-shelfwork: 007-006 M
!!!SMS-variant:
!!!SMS-altvar:
!!!NIFC-rismSourceID: 1001139139
!!!NIFC-islandoraID: pl-kk:6162
!!!URL-pdf-islandora: https://repozytorium.nifc.pl/islandora/object/pl-kk%3A6162/datastream/PDF/view
!!!URL-scan: https://polish.musicsources.pl/pl/lokalizacje/galeria/rekopisy/5994 @EN{Scan on Polish Music Herritage in Open Access Website} @PL{Skany w portalu Dziedzictwo Muzyki Polskiej w otwartym dostępie}
!!!ONB-nifc: UWAGA: obsada: S (T 1), A (B 1), T 2, B 2; S (T 1): skan 0021; A (B 1): skan 0167; T 2: skan 0093; B 2: skan 0239
!!!AIN: 1 alto 1 bass 2 tenor
!!!key:
**kern	**text	**dynam	**kern	**text	**kern	**text	**kern	**text
*part4	*part4	*part4	*part3	*part3	*part2	*part2	*part1	*part1
*staff4	*staff4	*	*staff3	*staff3	*staff2	*staff2	*staff1	*staff1
*Ibass	*	*	*Itenor	*	*Ialto	*	*Itenor	*
*I"Basso II	*	*	*I"Tenore II	*	*I"Alto vel Basso I	*	*I"Soprano vel Tenore I	*
*I'B.	*	*	*I'T.	*	*I'A.	*	*I'S.	*
*clefF4	*	*	*clefC4	*	*clefC3	*	*clefC1	*
*k[b-]	*	*	*k[b-]	*	*k[b-]	*	*k[b-]	*
*F:	*	*	*F:	*	*F:	*	*F:	*
*M3/4	*	*	*M3/4	*	*M3/2	*	*M3/4	*
=1	=1	=1	=1	=1	=1	=1	=1	=1
*2\right	*	*	*2\right	*	*2\right	*	*2\right	*
*rscale:2	*	*	*	*	*rscale:2	*	*	*
!LO:SIC:o:s:v= all\right	!	!	!LO:SIC:o:s:v= all\right	!	!LO:SIC:o:s:v= all\right	!	!LO:SIC:o:s:v= all\right	!
(4F\	A-	.	2c\	A-	2c\	A-	2a\	A-
4A\)	.	.	.	.	.	.	.	.
4F\	-gnus	.	4A\	-gnus	4f\	-gnus	4cc\	-gnus
=2	=2	=2	=2	=2	=2	=2	=2	=2
4C/	De-	.	4G/	De-	4e\	De-	4cc\	De-
4C/	-i	.	4G/	-i	4e\	-i	4cc\	-i
4F\	qui-	.	4A/	qui-	4f\	qui-	4cc\	qui
=3	=3	=3	=3	=3	=3	=3	=3	=3
(4E\	-tol-	.	4B-\	-tol-	(4g\	-tol-	2cc\	tol-
4C/)	.	.	4G/	.	4e\)	.	.	.
4F\	-lis	.	4A/	-lis	4f\	-lis	4cc\	-lis
=4	=4	=4	=4	=4	=4	=4	=4	=4
4C/	pe-	.	4c\	pec-	(8g\L	pec-	(8ee\L	pec-
.	.	.	.	.	8a\J)	.	8ff\J)	.
4E\	-ca-	.	4c\	-ca-	4b-\	-ca-	4gg\	-ca-
4F\	-ta	.	4c\	-ta	4a\	-ta	4ff\	-ta
=5	=5	=5	=5	=5	=5	=5	=5	=5
4C/	mun-	.	4c\	mun-	4a\	mun-	4ff\	mun-
4C/	-di	.	4c\	-di	4g\	-di	4ee\	-di
4r	.	.	4r	.	4r	.	4r	.
!LO:LB:g=original	!	!	!	!	!	!	!LO:LB:g=original	!
=6	=6	=6	=6	=6	=6	=6	=6	=6
2C/	mi-	.	2c\	mi-	2g\	mi-	2ee\	mi-
4c\	-se-	.	4c\	-se-	4a\	-se-	4ff\	-se-
=7	=7	=7	=7	=7	=7	=7	=7	=7
4c\	-re-	.	2c\	-re-	(4b-\	-re-	(4gg\	-re-
4C/	.	.	.	.	4g\)	.	4ee\)	.
4F\	-re	.	4c\	-re	4a\	-re	4ff\	-re
!	!	!	!LO:LB:g=original	!	!LO:LB:g=original	!	!	!
=8	=8	=8	=8	=8	=8	=8	=8	=8
2C/	mi-	.	2G/	mi-	2e\	mi-	2cc\	mi-
4F\	-se-	.	4A/	-se-	4f\	-se-	4cc\	-se-
=9	=9	=9	=9	=9	=9	=9	=9	=9
(4C/	-re-	.	(4B-\	-re-	(4g\	-re-	2cc\	-re-
4E\)	.	.	4G/)	.	4e\)	.	.	.
4F\	-re	.	4A/	-re	4f\	-re	4cc\	-re
=10	=10	=10	=10	=10	=10	=10	=10	=10
2C/	mi-	.	2c\	mi-	(4g\	mi-	(4ee\	mi-
.	.	.	.	.	4a\)	.	4ff\)	.
4C/	-se-	.	4c\	-se-	4b-\	-se-	4gg\	-se-
=11	=11	=11	=11	=11	=11	=11	=11	=11
(4F\	-re-	.	(4c\	-re-	(4a\	-re-	(4ff\	-re-
4G\)	.	.	4B-\)	.	4g\)	.	4ee\)	.
4A\	-re	.	4A\	-re	4f\	-re	4cc\	-re
=12	=12	=12	=12	=12	=12	=12	=12	=12
4B-\	no-	.	(4B-\	no-	(4g\	no-	(4dd\	no-
4c\	.	.	4A\	.	4f\	.	2cc\)	.
4C/	.	.	4G/)	.	4e\)	.	.	.
!LO:LB:g=original	!	!	!	!	!	!	!	!
=13	=13	=13	=13	=13	=13	=13	=13	=13
2F\	-bis	.	2A\	-bis	2f\	-bis	2cc\	-bis
4r	.	.	4r	.	4r	.	4r	.
!	!	!	!	!	!	!	!LO:LB:g=original	!
=14	=14	=14	=14	=14	=14	=14	=14	=14
2C/	mi-	.	2c\	mi-	2g\	mi-	2ee\	mi-
4C/	-se-	.	4c\	-se-	4a\	-se-	4ff\	-se-
=15	=15	=15	=15	=15	=15	=15	=15	=15
2C/	-re-	.	2c\	-re-	(4b-\	-re-	(4gg\	-re-
.	.	.	.	.	4g\)	.	4ee\)	.
4F\	-re	.	4c\	-re	4a\	-re	4ff\	-re
!	!	!	!	!	!LO:LB:g=original	!	!	!
=16	=16	=16	=16	=16	=16	=16	=16	=16
2c\	mi-	.	2G/	mi-	2e\	mi-	2cc\	mi-
4F\	-se-	.	4A/	-se-	4f\	-se-	4cc\	-se-
=17	=17	=17	=17	=17	=17	=17	=17	=17
4C/	-re-	.	(4B-\	-re-	(4g\	-re-	2cc\	-re-
4E\	.	.	4G/)	.	4e\)	.	.	.
4F\	-re	.	4A/	-re	4f\	-re	4cc\	-re
!	!	!	!LO:LB:g=original	!	!	!	!	!
=18	=18	=18	=18	=18	=18	=18	=18	=18
2C/	mi-	.	2c\	mi-	(4g\	mi-	(4ee\	mi-
.	.	.	.	.	4a\)	.	4ff\)	.
4C/	-se-	.	4c\	-se-	4b-\	-se-	4gg\	-se-
=19	=19	=19	=19	=19	=19	=19	=19	=19
4F\	-re-	.	(4c\	-re-	(4a\	-re-	(4ff\	-re-
4G\	.	.	4B-\)	.	4g\)	.	4ee\)	.
4A\	-re	.	4A\	-re	4f\	-re	4cc\	-re
=20	=20	=20	=20	=20	=20	=20	=20	=20
4B-\	no-	.	(4B-\	no-	(4g\	no-	(4dd\	no-
4c\	.	.	4A\	.	4f\	.	2cc\)	.
4C/	.	.	4G\)	.	4e\)	.	.	.
=21	=21	=21	=21	=21	=21	=21	=21	=21
2.F\	-bis	.	2.A/	-bis	2.f\	-bis	2.cc\	-bis
!LO:LB:g=original	!	!	!	!	!	!	!LO:LB:g=original	!
=22|!	=22|!	=22|!	=22|!	=22|!	=22|!	=22|!	=22|!	=22|!
*M4/4	*	*	*M4/4	*	*M4/4	*	*M4/4	*
*met(c)	*	*	*met(c)	*	*met(c)	*	*met(c)	*
*rscale:1	*	*	*	*	*rscale:1	*	*	*
(4F\	a-	.	2A\	A-	2f\	A-	2cc\	a-
4A\)	.	.	.	.	.	.	.	.
(4G\	-gnus	.	2c\	-gnus	2c\	-gnus	2a\	-gnus
4F\)	.	.	.	.	.	.	.	.
=23	=23	=23	=23	=23	=23	=23	=23	=23
2F\	De-	.	2F/	De-	2d\	De-	2b-\	De-
4F\	-i	.	4F/	-i	4c\	-i	4a\	-i
4C/	qui-	.	4G/	qui-	4B-/	qui	4g\	qui-
=24	=24	=24	=24	=24	=24	=24	=24	=24
2F\	-tol-	.	(4c\	-tol-	(>4A/	tol-	(4f\	-tol-
.	.	.	4B-\)	.	4B-/)	.	4g\)	.
2F\	-lis	.	2A\	-lis	2c/	-lis	2a\	-lis
=25	=25	=25	=25	=25	=25	=25	=25	=25
2r	.	.	2r	.	2r	.	2r	.
2G\	pe-	.	2e\	pec-	2c/	pe-	2g\	pec-
!	!	!	!LO:LB:g=original	!	!	!	!	!
=26	=26	=26	=26	=26	=26	=26	=26	=26
2A\	-ca-	.	2c\	-ca-	2f\	-ca-	2a\	-ca-
4F\	-ta	.	4c\	-ta	4f\	-ta	4a\	-ta
4F\	pe-	.	4c\	pec-	4f\	pe-	4a\	pec-
=27	=27	=27	=27	=27	=27	=27	=27	=27
2C/	-ca-	.	2G/	-ca-	2e\	-ca-	2cc\	-ca-
4C/	-ta	.	(4G/	-ta	4e\	-ta	4cc\	-ta
4C/	pe-	.	4c\)	.	4g\	qui	4ee\	pec-
!LO:TX:a:t=N&colon;S&colon;	!	!	!	!	!	!	!	!
!LO:PB:g=original	!	!	!	!	!	!	!LO:LB:g=original	!
=28	=28	=28	=28	=28	=28	=28	=28	=28
2C/	-ca-	.	2e\	mun-	2b-\	tol-	2gg\	-ca-
2C/	-ta	.	4e\	-di	4b-\	-lis	4gg\	-ta
.	.	.	4e\	pec-	4b-\	pe-	4gg\	pec-
=29	=29	=29	=29	=29	=29	=29	=29	=29
(4F\	pe-	.	2c\	-ca-	2a\	-ca-	2ff\	-ca-
4G\)	.	.	.	.	.	.	.	.
4A\	-ca-	.	2c\	-ta	2a\	-ta	2ff\	-ta
4G\	-ta	.	.	.	.	.	.	.
=30	=30	=30	=30	=30	=30	=30	=30	=30
(4F\	mun-	.	(2c\	mun-	1a\	mun-	1ff\	mun-
4A\	.	.	.	.	.	.	.	.
4B-\	.	.	2d\)	.	.	.	.	.
4Bn\)	.	.	.	.	.	.	.	.
=31	=31	=31	=31	=31	=31	=31	=31	=31
1c\	-di.	.	1c\	-di.	1g\	-di	1ee\	-di.
!LO:LB:g=original	!	!	!LO:LB:g=original	!	!LO:LB:g=original	!	!	!
=32|!	=32|!	=32|!	=32|!	=32|!	=32|!	=32|!	=32|!	=32|!
*k[b-]	*	*	*k[b-]	*	*k[b-]	*	*k[b-]	*
*M3/4	*	*	*M3/4	*	*M3/4	*	*M3/4	*
*rscale:2	*	*below	*	*	*rscale:2	*	*	*
8c\	Do-	p	8c\	Do-	8a\	Do-	8cc\	Do-
8B-\	-na	.	8B-\	-na	8g\	-na	8b-\	-na
8A\	no-	.	8A\	no-	8f\	no-	8a\	no-
8B-\	-bis	.	8B-\	-bis	8g\	-bis	8b-\	-bis
8A\	pa-	.	8A\	pa-	(8f\	pa-	(8a\L	pa-
8G\	-cem	.	8G/	-cem	8e\)	-cem	8g\J)	.
=33	=33	=33	=33	=33	=33	=33	=33	=33
8F\	do-	f	8A\	do-	4f\	.	4a\	-cem
8G\	-na	.	8B-\	-na	.	.	.	.
8A\	no-	.	8c\	no-	4r	.	4r	.
8B-\	-bis	.	8d\	-bis	.	.	.	.
(8A\	pa-	.	(8c\L	pa-	4r	.	4r	.
8G\)	.	.	8B-\J)	.	.	.	.	.
=34	=34	=34	=34	=34	=34	=34	=34	=34
4A\	-cem	.	4A\	-cem	8f\	do-	8a\	do-
.	.	.	.	.	8e\	-na	8g\	-na
4r	.	.	4r	.	8f\	no-	8a\	no-
.	.	.	.	.	8e\	-bis	8g\	-bis
4r	.	.	4r	.	(8d\	pa-	(8f/L	pa-
.	.	.	.	.	8c\)	.	8e/J)	.
=35	=35	=35	=35	=35	=35	=35	=35	=35
8G\	do-	.	8Bn\	do-	4Bn/	-cem	4d/	-cem
8A\	-na	.	8c\	-na	.	.	.	.
!	!	!	!LO:LB:g=original	!	!	!	!	!
8Bn\	no-	.	8d\	no-	4r	.	4r	.
8c\	-bis	.	8e\	-bis	.	.	.	.
!LO:LB:g=original	!	!	!	!	!	!	!	!
(8d\	pa-	.	(8f\L	pa-	4r	.	4r	.
8c\)	.	.	8e\J)	.	.	.	.	.
!	!	!	!	!	!	!	!LO:LB:g=original	!
=36	=36	=36	=36	=36	=36	=36	=36	=36
4Bn\	-cem	.	4d\	-cem	4r	.	4r	.
4G\	do-	.	4Bn\	do-	4f\	do-	4dd\	do-
4B\	-na	.	4G/	-na	4f\	-na	4dd\	-na
!	!	!	!	!	!LO:LB:g=original	!	!	!
=37	=37	=37	=37	=37	=37	=37	=37	=37
4.c\	no-	.	(4.G/	no-	(4.g\	no-	(4.ee\	no-
8G\	.	.	8Bn/)	.	8f\)	.	8dd\)	.
4C/	-bis	.	4G/	-bis	4e\	-bis	4cc\	-bis
=38	=38	=38	=38	=38	=38	=38	=38	=38
4F\	pa-	.	4A/	pa-	(4f\	pa-	(4dd\	pa-
2G\	.	.	2G/	.	4e\	.	4cc\	.
.	.	.	.	.	4d\)	.	4bn\)	.
=39	=39	=39	=39	=39	=39	=39	=39	=39
4C/	-cem	.	4G/	-cem	4e\	-cem	4cc\	-cem
4F\	do-	.	(4A/	pa-	4f\	do-	4cc\	do-
4F\	-na	.	4F/)	.	4a\	-na	4cc\	-na
=40	=40	=40	=40	=40	=40	=40	=40	=40
4F\	no-	.	4F/	-cem	8b-\	no-	8dd\	no-
.	.	.	.	.	8a\	-bis	8cc\	-bis
4F\	-bis	.	4r	.	(8b-\	pa-	8dd\L	pa-
.	.	.	.	.	8a\	.	8cc\	.
8B-X\	pa-	.	4r	.	8g\	.	8b-\	.
8Bn\	.	.	.	.	8f\)	.	8a\J	.
!LO:LB:g=original	!	!	!	!	!	!	!	!
=41	=41	=41	=41	=41	=41	=41	=41	=41
4c\	-cem	.	4r	.	4e\	-cem	4g\	-cem
4C/	do-	.	4B-\	do-	4e\	do-	4g\	do-
4E\	-na	.	4c\	-na	4g\	-na	4b-\	-na
!	!	!	!LO:LB:g=original	!	!LO:LB:g=original	!	!LO:LB:g=original	!
=42	=42	=42	=42	=42	=42	=42	=42	=42
4F\	no-	.	2c\	no-	(4f\	no-	(4a\	no-
4B-X\	.	.	.	.	4e\)	.	4g\)	.
4A\	-bis	.	4c\	-bis	4f\	-bis	4a\	-bis
=43	=43	=43	=43	=43	=43	=43	=43	=43
4B-\	pa-	.	(4d\	pa-	(4g\	pa-	(4b-\	pa-
4c\	.	.	2c\)	.	4f\	.	4a\	.
4C/	.	.	.	.	4e\)	.	4g\)	.
=44	=44	=44	=44	=44	=44	=44	=44	=44
2.F\	-cem.	.	2.c\	-cem.	2.f\	-cem.	2.a\	-cem.
==	==	==	==	==	==	==	==	==
*-	*-	*-	*-	*-	*-	*-	*-	*-
!!!system-decoration: [(s1,s2,s3,s4)]
!!!RDF**kern: > = above
!!!RDF**kern: < = below
!!!EED: Leszek Kubiak
!!!EEV: 2021-02-04
!!!ENC: Berenika Jozajtis
!!!END: 2021-01-29
